X: 06016
T: DON BRALEY'S REEL
C: Bob McQuillen 21 Aug 81
B: Bob's Note Book 6 #16
%R: reel
Z: 2021 John Chambers <jc:trillian.mit.edu>
M: C
L: 1/8
K: D
DE \
| F2FA BAde | fafd edfe | dfed BAde | f2e2 e2fe |\
| d2df edBd | AdBd BAde | fdBd AFDE | F2D2 D2 :|
|: FG \
| A2A2 BdAd | BdAF D2FG | ABAd fded | c2e2 e2fg |\
| abaf d2df | edBd A2de | fedB AFBA | F2D2 D2 :|
%%begintext align
%% Don Braley
%% is a great fiddler who lives in East Concord, N.H.
%% He also makes & repairs fiddles & bows, and
%% once he fixed up my old fiddle (not that I
%% can actually _play_ the damn thing!)
%%endtext

%%sep 1 1 500

%%sep 1 1 500

